svg/filter_variant_minus.svg

<svg xmlns="http://www.w3.org/2000/svg" viewBox="0 0 24 24"><path d="M21 8H3V6h18zm-7.19 8H10v2h3.09c.12-.72.37-1.39.72-2M18 11H6v2h12zm5 7h-8v2h8z"/></svg>

<?xml version="1.0" encoding="UTF-8"?><!DOCTYPE svg PUBLIC "-//W3C//DTD SVG 1.1//EN" "http://www.w3.org/Graphics/SVG/1.1/DTD/svg11.dtd"><svg xmlns="http://www.w3.org/2000/svg" xmlns:xlink="http://www.w3.org/1999/xlink" version="1.1" id="mdi-filter-variant-minus" width="24" height="24" viewBox="0 0 24 24"><path d="M21 8H3V6H21V8M13.81 16H10V18H13.09C13.21 17.28 13.46 16.61 13.81 16M18 11H6V13H18V11M23 18H15V20H23V18Z" /></svg>
